X: 1
T: Liberty
M: 2/4
R: reel
K: D
(ag|"D"f2)A2 f2A2| fgfe d2ef| "G"g2B2    g2B2| (ga)gf "A7"(ef)ge|
"D"f2A2 f2A2| fgfe deff| "A7"efed cABc| "D"d2dd d2 :|
|:AG|"D"FGAB A2FG| A2de fed2| FGAB A2F2| "A7"E2EF G4|
"D"FGAB A2FG| A2de fed2| "A7"gfed cABc| "D"d2dd d2 :|
